svgs/solid/clothes-hanger.svg

<svg xmlns="http://www.w3.org/2000/svg" viewBox="0 0 640 512"><!-- Font Awesome Pro 6.0.0-alpha2 by @fontawesome - https://fontawesome.com License - https://fontawesome.com/license (Commercial License) --><path d="M607.188 377L370.719 219.344L378.844 213.688C412.125 190.562 432 152.531 432 112C432 50.25 381.75 0 320 0C266.938 0 220.75 37.688 210.219 89.656C206.719 106.969 217.906 123.844 235.25 127.375C252.5 130.844 269.438 119.656 272.969 102.344C277.469 80.125 297.25 64 320 64C346.469 64 368 85.531 368 112C368 131.594 358.406 149.969 342.312 161.125L31.594 377.281C11.812 391.062 0 413.656 0 438.312C0 478.938 33.062 512 73.688 512H566.312C606.938 512 640 478.938 640 438.312C640 413.594 627.719 390.688 607.188 377ZM566.312 448H73.688C68.344 448 64 443.656 64 437.781C64 434.625 65.562 431.625 68.156 429.844L314.25 258.625L571.719 430.25C574.406 432.062 576 435.062 576 438.312C576 443.656 571.656 448 566.312 448Z"/></svg>

<svg xmlns="http://www.w3.org/2000/svg" viewBox="0 0 640 512"><!--! Font Awesome Pro 6.0.0-alpha3 by @fontawesome - https://fontawesome.com License - https://fontawesome.com/license (Commercial License) --><path d="M607.2 377l-236.5-157.7l8.125-5.656C412.1 190.6 432 152.5 432 112C432 50.25 381.8 0 320 0C266.9 0 220.8 37.69 210.2 89.66c-3.5 17.31 7.688 34.19 25.03 37.72C252.5 130.8 269.4 119.7 272.1 102.3C277.5 80.13 297.3 64 320 64c26.47 0 48 21.53 48 48c0 19.59-9.594 37.97-25.69 49.13l-310.7 216.2C11.81 391.1 0 413.7 0 438.3C0 478.9 33.06 512 73.69 512h492.6C606.9 512 640 478.9 640 438.3C640 413.6 627.7 390.7 607.2 377zM566.3 448H73.69C68.34 448 64 443.7 64 437.8c0-3.156 1.562-6.156 4.156-7.938l246.1-171.2l257.5 171.6C574.4 432.1 576 435.1 576 438.3C576 443.7 571.7 448 566.3 448z"/></svg>
